X: 124006
T: SPEED THE PLOUGH
Q: "Reel."
R: Reel.
%R: reel
B: James Kerr "Merry Melodies" v.1 p.24 s.0 #6
Z: 2017 John Chambers <jc:trillian.mit.edu>
M: C
L: 1/8
K: A
uE |\
A2Ac (ef)ec | eaec efec |\
dfdB cecA | dcBA GABc |\
A2Ac (ef)ec | eaec efec |\
dfdB cecA | cBAG A2-A |]
ue |\
aAaA aAce | aAgA fAeA |\
dfdB cecA | dcBA GABd |\
(3(cBA) (eA) fAeA | fgaf ecAc |\
decd BcAB | FAGB A2-A |]

%%sep 1 1 500
%%sep 1 1 500

